images/facebookicon.svg

<svg xmlns="http://www.w3.org/2000/svg" width="19.25" height="19.13" aria-hidden="true" class="icon icon-facebook"><path d="M19.25 9.62a9.63 9.63 0 1 0-11.13 9.51v-6.72H5.69V9.62h2.44V7.5a3.4 3.4 0 0 1 3.64-3.74 15.45 15.45 0 0 1 2.14.18v2.37h-1.22a1.39 1.39 0 0 0-1.57 1.5v1.81h2.67l-.44 2.79h-2.22v6.72a9.62 9.62 0 0 0 8.12-9.51Z"/></svg>

<svg id="Laag_1" data-name="Laag 1" xmlns="http://www.w3.org/2000/svg" viewBox="0 0 19.26 19.14"><defs><style>.cls-1{fill:#fff;}</style></defs><path class="cls-1" d="M19.25,9.62A9.63,9.63,0,1,0,8.12,19.13V12.41H5.69V9.62H8.13V7.5a3.39,3.39,0,0,1,3-3.73,3.11,3.11,0,0,1,.61,0,15.32,15.32,0,0,1,2.14.18V6.31H12.69A1.39,1.39,0,0,0,11.13,7.5a1.08,1.08,0,0,0,0,.31V9.62h2.67l-.44,2.79H11.13v6.72A9.62,9.62,0,0,0,19.25,9.62Z" transform="translate(0.01 0.01)"/></svg>
